public/img/location.svg

<svg width="24" height="35" viewBox="0 0 24 35" fill="none" xmlns="http://www.w3.org/2000/svg">
<path d="M12 25.1075C14.8286 22.8408 16.9643 20.6592 18.4071 18.5625C19.85 16.4658 20.5714 14.4967 20.5714 12.655C20.5714 10.105 19.7714 8.00833 18.1714 6.365C16.5714 4.72167 14.5143 3.9 12 3.9C9.48571 3.9 7.42857 4.72167 5.82857 6.365C4.22857 8.00833 3.42857 10.105 3.42857 12.655C3.42857 14.4967 4.15 16.4658 5.59286 18.5625C7.03571 20.6592 9.17143 22.8408 12 25.1075ZM12 29.4C7.97143 26.4533 4.96429 23.5917 2.97857 20.815C0.992857 18.0383 0 15.3183 0 12.655C0 9.11333 1.11429 6.20208 3.34286 3.92125C5.57143 1.64042 8.45714 0.5 12 0.5C15.5429 0.5 18.4286 1.64042 20.6571 3.92125C22.8857 6.20208 24 9.11333 24 12.655C24 15.3183 23.0071 18.0383 21.0214 20.815C19.0357 23.5917 16.0286 26.4533 12 29.4ZM12 15.8C12.9429 15.8 13.75 15.4671 14.4214 14.8013C15.0929 14.1354 15.4286 13.335 15.4286 12.4C15.4286 11.465 15.0929 10.6646 14.4214 9.99875C13.75 9.33292 12.9429 9 12 9C11.0571 9 10.25 9.33292 9.57857 9.99875C8.90714 10.6646 8.57143 11.465 8.57143 12.4C8.57143 13.335 8.90714 14.1354 9.57857 14.8013C10.25 15.4671 11.0571 15.8 12 15.8ZM0 34.5V31.1H24V34.5H0Z" fill="#FE9530"/>
</svg>

<svg xmlns="http://www.w3.org/2000/svg" width="24" height="35" fill="none"><path fill="#FE9530" d="M12 25.108q4.243-3.4 6.407-6.546 2.164-3.144 2.164-5.907 0-3.825-2.4-6.29T12 3.9 5.829 6.365t-2.4 6.29q0 2.762 2.164 5.908Q7.757 21.707 12 25.108m0 4.292q-6.043-4.42-9.021-8.585T0 12.655q0-5.313 3.343-8.734Q6.685.501 12 .5t8.657 3.421Q24 7.342 24 12.655q0 3.995-2.979 8.16Q18.044 24.98 12 29.4m0-13.6q1.415 0 2.421-.999 1.008-.999 1.008-2.401T14.42 9.999A3.32 3.32 0 0 0 12 9q-1.415 0-2.421.999-1.008.999-1.008 2.401t1.008 2.401A3.32 3.32 0 0 0 12 15.8M0 34.5v-3.4h24v3.4z"/></svg>
